dist/img/blog/10.svg

<svg width="25" height="25" viewBox="0 0 25 25" fill="none" xmlns="http://www.w3.org/2000/svg">
<path d="M3.2219 8.44L12.0019 4L20.7819 8.44C21.1619 8.64006 21.0219 9.20004 20.6019 9.20004H19.802V9.99996C19.802 10.22 19.622 10.3999 19.402 10.3999H4.60168C4.38167 10.3999 4.20171 10.22 4.20171 9.99996V9.20004H3.40178C2.98171 9.20004 2.84178 8.64004 3.22182 8.44H3.2219ZM20.6019 19.6H3.4019C3.18189 19.6 3.00193 19.78 3.00193 20V22H21.0019V20C21.0019 19.78 20.8218 19.6 20.6018 19.6H20.6019ZM7.20189 11.2H5.40197C5.28199 11.2 5.20191 11.2799 5.20191 11.4001V16.8001H4.60187C4.38187 16.8001 4.20191 16.98 4.20191 17.2V18.8001H19.8019V17.2C19.8019 16.98 19.6219 16.8001 19.4019 16.8001H18.8019V11.4001C18.8019 11.2801 18.722 11.2 18.6019 11.2H16.8019C16.6819 11.2 16.6019 11.2799 16.6019 11.4001V16.8001H15.0018L15.002 11.4001C15.002 11.2801 14.922 11.2 14.8019 11.2H13.002C12.882 11.2 12.8019 11.2799 12.8019 11.4001V16.8001H11.2019V11.4001C11.2019 11.2801 11.122 11.2 11.0018 11.2H9.20191C9.08193 11.2 9.00185 11.2799 9.00185 11.4001V16.8001H7.40181L7.40195 11.4001C7.40195 11.2801 7.32187 11.2001 7.2019 11.2001L7.20189 11.2Z" fill="#202125"/>
</svg>

<svg width="25" height="25" viewBox="0 0 25 25" fill="none" xmlns="http://www.w3.org/2000/svg"><path d="M3.222 8.44L12.002 4l8.78 4.44c.38.2.24.76-.18.76h-.8v.8c0 .22-.18.4-.4.4h-14.8c-.22 0-.4-.18-.4-.4v-.8h-.8c-.42 0-.56-.56-.18-.76zm17.38 11.16h-17.2c-.22 0-.4.18-.4.4v2h18v-2c0-.22-.18-.4-.4-.4zm-13.4-8.4h-1.8c-.12 0-.2.08-.2.2v5.4h-.6c-.22 0-.4.18-.4.4v1.6h15.6v-1.6c0-.22-.18-.4-.4-.4h-.6v-5.4c0-.12-.08-.2-.2-.2h-1.8c-.12 0-.2.08-.2.2v5.4h-1.6v-5.4c0-.12-.08-.2-.2-.2h-1.8c-.12 0-.2.08-.2.2v5.4h-1.6v-5.4c0-.12-.08-.2-.2-.2h-1.8c-.12 0-.2.08-.2.2v5.4h-1.6v-5.4c0-.12-.08-.2-.2-.2z" fill="#202125"/></svg>
